X:371
T:Davie Work
C:James Scott Skinner
B:The Scottish Violinist
Z:Nigel Gatherer
L:1/8
M:4/4
K:A
E| A2 cA GABc | dFBA GBeg | a2 ga fedc | dBed cAA :|
g| aAag  fedc | bBba gefg | aAag  fedc | dfeg aAAg |
   aAag  fedc | bBba gfed | cAdB  ecfd | eagb aAA |]
